X: 1
T: Dorset Four-Hand Reel No. 1
C: Trad
R: Dance Tune
M: 4/4
L: 1/8
K: G
Z: ABC transcription by Verge Roller
r: 32
|: BA | "G" G2 B2 d2 cB | "C" c2 e2 c2 e2 | "G" G2 B2 d3 c | "D" B2 A2 AcBA |
"G" G2 B2 d2 cB | "C" c2 e2 c2 e2 | "G" G2 B2 "D" d3 c | "G" B2 G2 G2 :|
|: ef | "G" g2 g2 gf e2 | "G" d2 d2 dc B2 | "Am" A3 B c2 d2 | "D" e2 d2 d2 ef|
"G" g2 g2 gf e2 | "G" d2 d2 dc B2 | "Am" A3 B "D7" c2 A2 | "G" A2 G2 G2 :|
